src/lib/packages/icons/src/assets/line/link-broken.svg

<svg width="24" height="24" viewBox="0 0 24 24" fill="none" xmlns="http://www.w3.org/2000/svg">
<path d="M17.5649 14.296C17.3739 14.296 17.1819 14.223 17.0359 14.078C16.7429 13.786 16.7409 13.311 17.0339 13.017L19.001 11.039C19.809 10.241 20.25 9.17101 20.25 8.02301C20.25 6.87701 19.8069 5.80299 19.0029 4.99799C17.3389 3.33299 14.6289 3.33299 12.9629 4.99799L10.9961 6.97501C10.7041 7.26901 10.2291 7.27 9.93506 6.978C9.64206 6.686 9.63988 6.21099 9.93188 5.91699L11.9009 3.939C14.1529 1.687 17.813 1.68899 20.063 3.93799C21.151 5.02499 21.75 6.47601 21.75 8.02301C21.75 9.57501 21.15 11.023 20.061 12.101L18.0979 14.075C17.9499 14.223 17.7579 14.296 17.5649 14.296ZM12.0991 20.063L14.0779 18.095C14.3709 17.803 14.3731 17.328 14.0801 17.034C13.7881 16.74 13.313 16.74 13.019 17.031L11.04 19.001C9.37604 20.666 6.666 20.666 5 19.001C3.335 17.336 3.33502 14.627 4.99902 12.963L6.97803 10.995C7.27103 10.703 7.27298 10.228 6.97998 9.93399C6.68798 9.63999 6.21295 9.64 5.91895 9.931L3.93994 11.901C1.68994 14.151 1.68994 17.811 3.93994 20.061C5.06594 21.186 6.544 21.748 8.021 21.748C9.498 21.748 10.9751 21.187 12.0991 20.063ZM21.75 17C21.75 16.586 21.414 16.25 21 16.25H19C18.586 16.25 18.25 16.586 18.25 17C18.25 17.414 18.586 17.75 19 17.75H21C21.414 17.75 21.75 17.414 21.75 17ZM17.75 21V19C17.75 18.586 17.414 18.25 17 18.25C16.586 18.25 16.25 18.586 16.25 19V21C16.25 21.414 16.586 21.75 17 21.75C17.414 21.75 17.75 21.414 17.75 21ZM5.75 7C5.75 6.586 5.414 6.25 5 6.25H3C2.586 6.25 2.25 6.586 2.25 7C2.25 7.414 2.586 7.75 3 7.75H5C5.414 7.75 5.75 7.414 5.75 7ZM7.75 5V3C7.75 2.586 7.414 2.25 7 2.25C6.586 2.25 6.25 2.586 6.25 3V5C6.25 5.414 6.586 5.75 7 5.75C7.414 5.75 7.75 5.414 7.75 5Z" fill="currentColor"/>
</svg>

<svg xmlns="http://www.w3.org/2000/svg" width="24" height="24" fill="none"><path fill="currentColor" d="M17.565 14.296a.75.75 0 0 1-.531-1.279L19 11.039a4.2 4.2 0 0 0 1.249-3.016 4.25 4.25 0 0 0-1.247-3.025 4.276 4.276 0 0 0-6.04 0l-1.967 1.977a.75.75 0 0 1-1.064-1.058L11.9 3.939a5.778 5.778 0 0 1 8.162-.001 5.734 5.734 0 0 1 1.687 4.085c0 1.552-.6 3-1.689 4.078l-1.963 1.974a.75.75 0 0 1-.533.221Zm-5.466 5.767 1.979-1.968a.75.75 0 0 0-1.059-1.064l-1.979 1.97a4.276 4.276 0 0 1-6.04 0 4.275 4.275 0 0 1-.001-6.038l1.979-1.968a.75.75 0 0 0-1.059-1.064l-1.98 1.97a5.776 5.776 0 0 0 0 8.16 5.756 5.756 0 0 0 4.082 1.687 5.748 5.748 0 0 0 4.078-1.685ZM21.75 17a.75.75 0 0 0-.75-.75h-2a.75.75 0 0 0 0 1.5h2a.75.75 0 0 0 .75-.75Zm-4 4v-2a.75.75 0 0 0-1.5 0v2a.75.75 0 0 0 1.5 0Zm-12-14A.75.75 0 0 0 5 6.25H3a.75.75 0 0 0 0 1.5h2A.75.75 0 0 0 5.75 7Zm2-2V3a.75.75 0 0 0-1.5 0v2a.75.75 0 0 0 1.5 0Z"/></svg>
